dist/images/svg/reporting.svg

<svg xmlns="http://www.w3.org/2000/svg" width="52" height="52" viewBox="0 0 52 52">
  <defs>
    <linearGradient id="icon_reporting-a" x1="0%" x2="98.577%" y1="0%" y2="98.577%">
      <stop offset="0%" stop-color="#FA384D"/>
      <stop offset="100%" stop-color="#FA513C"/>
    </linearGradient>
  </defs>
  <g fill="none" fill-rule="evenodd" transform="translate(-8 -8)">
    <path fill="url(#icon_reporting-a)" d="M57.9987847,8 L10.0012153,8 C8.89528053,8 8,8.89546191 8,9.9910859 L8,57.9983793 C8,59.1045381 8.89528053,60 10.0012153,60 L57.9987847,60 C59.0941868,60 60,59.1045381 60,57.9983793 L60,9.9910859 C60,8.89546191 59.0941868,8 57.9987847,8 Z M21.2712173,55.9967585 L12.0024306,55.9967585 L12.0024306,52.0672609 L14.9831882,52.0672609 C16.0891229,52.0672609 16.9844035,51.171799 16.9844035,50.0551053 C16.9844035,48.9594814 16.0891229,48.0640194 14.9831882,48.0640194 L12.0024306,48.0640194 L12.0024306,41.3533225 L14.9831882,41.3533225 C16.0891229,41.3533225 16.9844035,40.4578606 16.9844035,39.3517018 C16.9844035,38.2455429 16.0891229,37.350081 14.9831882,37.350081 L12.0024306,37.350081 L12.0024306,30.6393841 L14.9831882,30.6393841 C16.0891229,30.6393841 16.9844035,29.7439222 16.9844035,28.6482982 C16.9844035,27.5421394 16.0891229,26.6466775 14.9831882,26.6466775 L12.0024306,26.6466775 L12.0024306,19.9359806 L14.9831882,19.9359806 C16.0891229,19.9359806 16.9844035,19.0405186 16.9844035,17.9343598 C16.9844035,16.828201 16.0891229,15.9327391 14.9831882,15.9327391 L12.0024306,15.9327391 L12.0024306,12.0032415 L21.2712173,12.0032415 L21.2712173,55.9967585 Z M23.6726757,55.9967585 L55.9975694,55.9967585 L55.9975694,12.0032415 L23.6726757,12.0032415 L23.6726757,55.9967585 Z M31.6670043,45.6199352 L48.0032408,45.6199352 C48.6668017,45.6199352 49.20397,45.0721232 49.20397,44.4189627 L49.20397,42.6596434 C49.20397,41.7957861 49.0354466,40.9635332 48.7194653,40.2050243 C48.3929512,39.4254457 47.9084464,38.7090762 47.3186145,38.1296596 C46.7287827,37.5397083 46.0230909,37.0551053 45.2436702,36.7285251 L44.9487543,36.6231767 L45.1488758,36.4440843 C46.497063,35.0850891 47.33968,33.1993517 47.33968,31.1345219 C47.33968,29.0591572 46.497063,27.1839546 45.1488758,25.8249595 C43.790156,24.4659643 41.9048005,23.6231767 39.8403889,23.6231767 C37.7654446,23.6231767 35.8906218,24.4659643 34.531902,25.8249595 C33.1731821,27.1839546 32.3305651,29.0591572 32.3305651,31.1345219 C32.3305651,33.1993517 33.1731821,35.0850891 34.531902,36.4440843 L34.7214908,36.6231767 C33.8156775,36.939222 33.0151914,37.4554295 32.3516305,38.1296596 C31.7617987,38.7090762 31.2772939,39.4254457 30.9507798,40.2050243 C30.6347985,40.9635332 30.4557424,41.7957861 30.4557424,42.6596434 L30.4557424,44.4189627 C30.4557424,45.0721232 31.0034434,45.6199352 31.6670043,45.6199352 Z M36.2171359,27.5210697 C37.1440146,26.5940032 38.4290055,26.0251216 39.8403889,26.0251216 C41.2517723,26.0251216 42.5262305,26.5940032 43.4425765,27.5210697 C44.3694551,28.4376013 44.9382216,29.7228525 44.9382216,31.1345219 C44.9382216,32.5356564 44.3694551,33.8209076 43.4425765,34.7374392 C42.5367632,35.6539708 41.2833705,36.2123177 39.9035852,36.2333874 L39.7771926,36.2333874 C38.3868746,36.2123177 37.1440146,35.6539708 36.2171359,34.7374392 C35.30079,33.8209076 34.7320235,32.5356564 34.7320235,31.1345219 C34.7320235,29.7228525 35.30079,28.4376013 36.2171359,27.5210697 Z M32.8677334,42.6596434 C32.8677334,42.1118314 32.9730606,41.5850891 33.1626494,41.1215559 C33.3627709,40.636953 33.6682196,40.1839546 34.0368645,39.815235 C34.7741543,39.0883306 35.774762,38.6353323 36.8806968,38.6353323 L42.7895483,38.6353323 C43.3372493,38.6353323 43.8533522,38.7406807 44.3167916,38.9408428 C44.8012963,39.1410049 45.254203,39.4465154 45.6228479,39.815235 C46.0020255,40.1839546 46.2969415,40.636953 46.5075957,41.1215559 C46.6971845,41.5850891 46.8130444,42.1118314 46.8130444,42.6596434 L46.8130444,43.2179903 L32.8677334,43.2179903 L32.8677334,42.6596434 Z"/>
    <rect width="68" height="68"/>
  </g>
</svg>

<svg xmlns="http://www.w3.org/2000/svg" width="52" height="52" viewBox="0 0 52 52"><defs><linearGradient id="a" x1="0%" x2="98.577%" y1="0%" y2="98.577%"><stop offset="0%" stop-color="#FA384D"/><stop offset="100%" stop-color="#FA513C"/></linearGradient></defs><g fill="none" fill-rule="evenodd"><path fill="url(#a)" d="M57.999 8H10a1.998 1.998 0 0 0-2 1.991v48.007A2 2 0 0 0 10.001 60H58a2.007 2.007 0 0 0 2-2.002V9.991A2.005 2.005 0 0 0 57.999 8zM21.27 55.997h-9.269v-3.93h2.981a2.003 2.003 0 0 0 0-4.003h-2.98v-6.71h2.98a2 2 0 1 0 0-4.004h-2.98v-6.71h2.98a1.998 1.998 0 0 0 2.001-1.992 2 2 0 0 0-2-2.001h-2.982v-6.711h2.981a2 2 0 1 0 0-4.003h-2.98v-3.93h9.268v43.994zm2.402 0h32.325V12.003H23.673v43.994zm7.994-10.377h16.336c.664 0 1.201-.548 1.201-1.201v-1.76c0-.863-.169-1.695-.485-2.454a6.39 6.39 0 0 0-1.4-2.075 6.503 6.503 0 0 0-2.075-1.401l-.295-.106.2-.179a7.538 7.538 0 0 0 2.19-5.31 7.5 7.5 0 0 0-12.808-5.31 7.503 7.503 0 0 0 0 10.62l.19.18a6.162 6.162 0 0 0-2.37 1.506 6.39 6.39 0 0 0-1.895 4.53v1.759c0 .653.547 1.2 1.211 1.2zm4.55-18.099a5.11 5.11 0 0 1 3.623-1.496c1.412 0 2.686.569 3.603 1.496a5.07 5.07 0 0 1 1.495 3.614 5.063 5.063 0 0 1-1.495 3.602 5.063 5.063 0 0 1-3.54 1.496h-.126a5.133 5.133 0 0 1-3.56-1.496 5.098 5.098 0 0 1-1.485-3.602c0-1.412.569-2.697 1.485-3.614zm-3.35 15.139c0-.548.106-1.075.296-1.538a4.04 4.04 0 0 1 3.718-2.486h5.909c.547 0 1.063.105 1.527.305a4.095 4.095 0 0 1 2.19 2.18c.19.464.306.99.306 1.539v.558H32.868v-.558z" transform="translate(-8 -8)"/><path d="M-8-8h68v68H-8z"/></g></svg>
